img/work/logo-rebbix.svg

<?xml version="1.0" encoding="UTF-8" standalone="no"?>
<svg width="123px" height="50px" viewBox="0 0 123 50" version="1.1" xmlns="http://www.w3.org/2000/svg" xmlns:xlink="http://www.w3.org/1999/xlink">
    <!-- Generator: Sketch 41 (35326) - http://www.bohemiancoding.com/sketch -->
    <title>logo small copy</title>
    <desc>Created with Sketch.</desc>
    <defs></defs>
    <g id="Content-real" stroke="none" stroke-width="1" fill="none" fill-rule="evenodd">
        <g id="Work-Copy" transform="translate(-119.000000, -14368.000000)" fill="#85BC49">
            <g id="logo-small-copy" transform="translate(119.000000, 14368.000000)">
                <path d="M96.0046688,21.0390804 C94.8695777,21.0390804 93.9496212,22.0075968 93.9496212,23.2026501 L93.9496212,45.6405455 C93.9496212,46.8363156 94.8695777,47.8062658 96.0046688,47.8062658 C97.139077,47.8062658 98.0603994,46.8363156 98.0603994,45.6405455 L98.0603994,23.2033669 C98.0603994,22.0075968 97.139077,21.0390804 96.0046688,21.0390804 L96.0046688,21.0390804 Z M10.7478514,21.0039528 C10.5935009,20.9379991 10.4316377,20.8985702 10.2697745,20.8734791 L10.115424,20.8734791 C9.99248993,20.8734791 9.86955587,20.8734791 9.75276852,20.8899675 C7.31662529,20.9867475 5.18850017,22.180367 3.82393214,24.1697327 L3.82393214,22.8463564 C3.76178214,22.2620923 3.46878931,21.7502338 3.03715417,21.4262002 C2.72094046,21.183175 2.33506412,21.0369297 1.91162459,21.0369297 C1.48681912,21.0369297 1.10162574,21.183175 0.786094997,21.4262002 C0.308018109,21.7839276 0,22.3839633 0,23.0499528 L0,45.7007641 C0,46.3502651 0.285480199,46.9273604 0.717115332,47.3166309 C1.07225816,47.6170072 1.51891857,47.804832 2.0045081,47.804832 C2.49009762,47.804832 2.93744099,47.6170072 3.28438822,47.3166309 C3.67094753,46.975392 3.94003653,46.480022 3.99467388,45.920132 L3.99467388,32.0612421 C3.99467388,27.6695827 6.97036103,25.4364748 10.0396147,25.1117243 L10.0553229,25.1117243 L10.3872448,25.0794643 L10.4015872,25.0794643 C10.5170086,25.0550901 10.6413086,25.0228301 10.7485344,24.9740817 C11.5120915,24.6737054 12.059148,23.8944475 12.059148,22.9847159 C12.0584651,22.0757012 11.5114085,21.3036122 10.7478514,21.0039528 L10.7478514,21.0039528 Z M36.9594413,33.5552379 C36.6200067,29.8933711 35.2711469,26.6293774 33.1348261,24.3647264 C30.9220131,22.0183501 27.9927677,20.8333333 24.429046,20.8333333 C16.4185263,20.8333333 11.6377574,27.7262169 11.6377574,34.3990158 C11.6377574,42.1041341 17.1349586,47.9166667 24.429046,47.9166667 C29.0397561,47.9166667 32.9347168,45.5710073 35.2554386,41.5263219 C35.3319309,41.4137704 35.4015936,41.2918994 35.4562309,41.1614257 C35.5477485,40.9191173 35.6023859,40.6495672 35.6023859,40.374282 C35.6023859,40.0903941 35.5477485,39.8215609 35.4562309,39.5871384 C35.3558348,39.3426794 35.2171925,39.1240283 35.0389381,38.9369204 C34.8695623,38.7569814 34.6612574,38.6035672 34.4304145,38.5067873 C34.1995717,38.4014047 33.944825,38.3440536 33.6832486,38.3440536 C33.4121107,38.3440536 33.1662426,38.4006878 32.9353998,38.5067873 C32.703191,38.6035672 32.4948861,38.7569814 32.3179976,38.9369204 C32.2408224,39.0265315 32.1718427,39.1147088 32.102863,39.2136394 L32.0639339,39.2788763 C30.5142818,42.2747536 27.7079705,44.0289799 24.430412,44.0289799 C19.9276106,44.0289799 16.3645719,40.6739414 15.8024901,35.9991111 L35.0717205,35.9991111 C35.3408095,35.9991111 35.5962392,35.94176 35.827082,35.8349436 C36.0586078,35.7381636 36.2594001,35.5926352 36.4369715,35.4048104 C36.613177,35.2184194 36.7518193,34.9990515 36.8447028,34.7646289 C36.9375863,34.5359415 36.9922237,34.2857474 36.9990533,34.0154804 L36.9608072,33.5616899 L36.9608072,33.5552379 L36.9594413,33.5552379 Z M15.8400532,32.1092737 C16.7647905,27.7333858 20.2342628,24.7145681 24.429729,24.7145681 C28.4476237,24.7145681 31.7251823,27.6695827 32.7120696,32.1092737 L15.8400532,32.1092737 L15.8400532,32.1092737 Z M114.842947,34.4198055 L122.455297,24.5654552 C123.172412,23.6392352 123.038551,22.27643 122.158206,21.5215464 C121.776428,21.1946452 121.318157,21.0362128 120.861252,21.0362128 C120.264339,21.0362128 119.67289,21.3079136 119.266524,21.832676 L112.193718,30.9902106 L105.120912,21.832676 C104.714547,21.3079136 104.123097,21.0362128 103.526184,21.0362128 C103.069279,21.0362128 102.610325,21.1953621 102.22923,21.5215464 C101.349568,22.27643 101.21639,23.6399521 101.932139,24.5654552 L109.544489,34.4198055 L101.932822,44.2748727 C101.215707,45.2010928 101.349568,46.5653317 102.22923,47.3202154 C102.611008,47.6463997 103.069279,47.8055489 103.524818,47.8055489 C104.121731,47.8055489 104.713181,47.5324144 105.120229,47.0069351 L112.193035,37.8508342 L119.265158,47.0069351 C119.672207,47.5324144 120.263656,47.8055489 120.860569,47.8055489 C121.316108,47.8055489 121.775062,47.6463997 122.155475,47.3202154 C123.035819,46.5653317 123.168998,45.2010928 122.452565,44.2748727 L114.842947,34.4198055 L114.842947,34.4198055 Z" id="Shape"></path>
                <path d="M85.6203528,26.1607731 C83.4801896,23.5093466 80.4765582,21.8829346 77.1619974,21.5822359 C76.7985735,21.550291 76.4317845,21.5336241 76.0690336,21.5336241 C73.3796966,21.5336241 70.8633224,22.461415 68.8019011,24.0211594 L71.4219184,4.7313025 L71.4542228,4.36115836 C71.5127744,2.44238115 70.0671548,0.837497285 68.2251339,0.771524127 C66.381094,0.708328786 64.8385613,2.21321124 64.7739526,4.12990508 L64.0363367,27.316345 C61.5280386,23.6253204 57.4125992,21.2495923 52.7836552,21.2495923 C52.2943789,21.2495923 51.8024106,21.2780649 51.3151533,21.3315379 C47.8498389,21.7134878 44.7237201,23.4149008 42.4294384,26.1198003 L41.7409519,3.18891952 L41.7247998,2.92294352 C41.5282816,1.115279 39.9601747,-0.184739434 38.225835,0.0215134912 C36.4894762,0.22359969 35.2410477,1.85417837 35.4368929,3.65975953 C35.4368929,3.65975953 39.0112345,36.9400926 39.0307517,37.1366231 C39.7777897,44.4707549 45.6766984,50 52.7533698,50 C53.2392811,50 53.7352874,49.9722218 54.2211987,49.9187488 C59.3697043,49.3520741 63.5591745,45.8881361 65.4658041,41.256126 C65.7881746,41.803356 66.1394844,42.3366969 66.5439618,42.8360095 C68.6854709,45.4881305 71.6870833,47.1145424 75.0023171,47.4145467 C75.365068,47.4478805 75.733876,47.4645474 76.0939349,47.4645474 C82.490869,47.4645474 87.9381898,42.2630847 88.4940938,35.6220183 C88.7814679,32.1726639 87.7598429,28.8121995 85.6203528,26.1607731 L85.6203528,26.1607731 Z M53.7985501,45.7749401 C53.4499324,45.8131351 53.0992956,45.8332742 52.7526968,45.8332742 C47.7307166,45.8332742 43.5425924,41.9068297 43.0136087,36.6984225 C42.7383487,33.9872729 43.4914438,31.327513 45.1396386,29.207344 C46.7878334,27.0857862 49.1305717,25.7635452 51.7337638,25.4746522 C52.0810356,25.4364572 52.4357104,25.417707 52.7829822,25.417707 C57.8056354,25.417707 61.9910676,29.3434571 62.5220703,34.5504754 C63.0921075,40.1484714 59.1799162,45.1853484 53.7985501,45.7749401 L53.7985501,45.7749401 Z M84.5045067,35.262291 C84.1282956,39.7679105 80.4328127,43.2985161 76.0925889,43.2985161 C75.8496332,43.2985161 75.5972555,43.2880993 75.3489158,43.2644878 C73.0997256,43.0596238 71.0605135,41.9568304 69.6074908,40.1581938 C68.1537951,38.3588627 67.4632897,36.0782748 67.6577888,33.7358805 C68.0366919,29.230261 71.7294828,25.7010443 76.0690336,25.7010443 C76.3140083,25.7010443 76.568405,25.7121556 76.8147257,25.7336837 C79.064589,25.9371588 81.101782,27.0413411 82.5548047,28.8399777 C84.0091734,30.6379199 84.6976598,32.9212856 84.5045067,35.262291 L84.5045067,35.262291 Z" id="Shape"></path>
                <path d="M92.7083333,16.6662955 C92.7083333,18.3893327 94.1098666,19.7916667 95.8333333,19.7916667 C97.5575487,19.7916667 98.9583333,18.3893327 98.9583333,16.6662955 C98.9575847,14.9432583 97.5568,13.5416667 95.8333333,13.5416667 C94.1098666,13.5416667 92.7083333,14.9432583 92.7083333,16.6662955 Z" id="Shape"></path>
            </g>
        </g>
    </g>
</svg>

<svg width="123" height="50" viewBox="0 0 123 50" xmlns="http://www.w3.org/2000/svg"><title>logo small copy</title><g fill="#85BC49" fill-rule="evenodd"><path d="M96.005 21.04c-1.135 0-2.055.968-2.055 2.163V45.64c0 1.195.92 2.165 2.055 2.165 1.134 0 2.055-.97 2.055-2.165V23.203c0-1.195-.92-2.164-2.055-2.164zm-85.257-.036a1.985 1.985 0 0 0-.478-.13h-.155c-.123 0-.245 0-.362.016-2.436.097-4.564 1.29-5.93 3.28v-1.324a2.039 2.039 0 0 0-.786-1.42 1.835 1.835 0 0 0-1.125-.39c-.425 0-.81.147-1.126.39A2.026 2.026 0 0 0 0 23.05V45.7c0 .65.285 1.227.717 1.617.355.3.802.488 1.288.488.485 0 .932-.188 1.28-.488.386-.342.655-.837.71-1.397V32.061c0-4.391 2.975-6.625 6.045-6.95h.015l.332-.032h.015a1.71 1.71 0 0 0 .347-.105c.763-.3 1.31-1.08 1.31-1.99 0-.908-.548-1.68-1.311-1.98zm26.211 12.551c-.339-3.662-1.688-6.926-3.824-9.19-2.213-2.347-5.142-3.532-8.706-3.532-8.01 0-12.791 6.893-12.791 13.566 0 7.705 5.497 13.518 12.791 13.518 4.61 0 8.506-2.346 10.826-6.39.077-.113.147-.235.201-.366.092-.242.146-.511.146-.787 0-.284-.054-.552-.146-.787a2.08 2.08 0 0 0-.417-.65 1.81 1.81 0 0 0-.609-.43 1.8 1.8 0 0 0-1.495 0c-.232.097-.44.25-.617.43-.077.09-.146.178-.215.277l-.04.065c-1.549 2.996-4.355 4.75-7.633 4.75-4.502 0-8.065-3.355-8.628-8.03h19.27c.269 0 .524-.057.755-.164a1.78 1.78 0 0 0 .61-.43 2.12 2.12 0 0 0 .562-1.39l-.038-.453v-.007h-.002zM15.84 32.11c.925-4.376 4.394-7.394 8.59-7.394 4.018 0 7.295 2.955 8.282 7.394H15.84zm99.003 2.31l7.612-9.854c.717-.926.584-2.289-.297-3.043a1.984 1.984 0 0 0-2.891.31l-7.073 9.158-7.073-9.157a2.013 2.013 0 0 0-1.595-.797c-.457 0-.916.16-1.297.486-.88.754-1.013 2.118-.297 3.043l7.612 9.855-7.611 9.855c-.717.926-.583 2.29.296 3.045.382.326.84.486 1.296.486.597 0 1.188-.274 1.595-.8l7.073-9.155 7.072 9.156c.407.525.999.799 1.596.799.455 0 .914-.16 1.294-.486.88-.755 1.014-2.119.298-3.045l-7.61-9.855zM85.62 26.16c-2.14-2.65-5.143-4.277-8.458-4.578a12.52 12.52 0 0 0-1.093-.048c-2.69 0-5.206.927-7.267 2.487l2.62-19.29.032-.37c.059-1.919-1.387-3.524-3.229-3.59-1.844-.063-3.386 1.442-3.451 3.359l-.738 23.186c-2.508-3.69-6.623-6.066-11.252-6.066-.49 0-.982.028-1.469.082-3.465.381-6.591 2.083-8.886 4.788l-.688-22.931-.016-.266c-.197-1.808-1.765-3.108-3.5-2.901-1.736.202-2.984 1.832-2.788 3.638 0 0 3.574 33.28 3.594 33.477C39.778 44.47 45.677 50 52.753 50c.486 0 .982-.028 1.468-.081 5.149-.567 9.338-4.03 11.245-8.663.322.547.673 1.08 1.078 1.58 2.141 2.652 5.143 4.279 8.458 4.579.363.033.732.05 1.092.05 6.397 0 11.844-5.202 12.4-11.843.287-3.45-.734-6.81-2.874-9.461zM53.8 45.776c-.35.038-.7.058-1.046.058-5.022 0-9.21-3.926-9.74-9.135-.275-2.71.478-5.37 2.127-7.49 1.648-2.122 3.99-3.444 6.594-3.733a9.657 9.657 0 0 1 1.049-.057c5.023 0 9.208 3.925 9.74 9.132.57 5.598-3.343 10.635-8.724 11.225zm30.706-10.513c-.377 4.506-4.072 8.037-8.412 8.037-.243 0-.496-.01-.744-.035-2.25-.204-4.288-1.307-5.742-3.106-1.453-1.8-2.144-4.08-1.95-6.422.38-4.506 4.072-8.035 8.412-8.035.245 0 .5.011.746.033 2.25.203 4.287 1.307 5.74 3.106 1.454 1.798 2.143 4.081 1.95 6.422zM92.708 16.666a3.129 3.129 0 0 0 3.125 3.126 3.128 3.128 0 0 0 3.125-3.126 3.129 3.129 0 0 0-3.125-3.124 3.128 3.128 0 0 0-3.125 3.124z"/></g></svg>
